app/img/instagram.svg

<svg width="24px" height="24px" viewBox="0 0 24 24" fill="none" xmlns="http://www.w3.org/2000/svg">
    <path d="M12 16C14.2091 16 16 14.2091 16 12C16 9.79086 14.2091 8 12 8C9.79086 8 8 9.79086 8 12C8 14.2091 9.79086 16 12 16Z"
          stroke="#FFFFFF" stroke-width="1.5" stroke-linecap="round" stroke-linejoin="round"/>
    <path d="M3 16V8C3 5.23858 5.23858 3 8 3H16C18.7614 3 21 5.23858 21 8V16C21 18.7614 18.7614 21 16 21H8C5.23858 21 3 18.7614 3 16Z"
          stroke="#FFFFFF" stroke-width="1.5"/>
    <path d="M17.5 6.51L17.51 6.49889" stroke="#FFFFFF" stroke-width="1.5" stroke-linecap="round"
          stroke-linejoin="round"/>
</svg>

<?xml version="1.0" encoding="utf-8"?>
<!-- Generator: Adobe Illustrator 26.0.3, SVG Export Plug-In . SVG Version: 6.00 Build 0)  -->
<svg version="1.1" id="Calque_1" xmlns="http://www.w3.org/2000/svg" xmlns:xlink="http://www.w3.org/1999/xlink" x="0px" y="0px"
	 viewBox="0 0 24 24" style="enable-background:new 0 0 24 24;" xml:space="preserve">
<style type="text/css">
	.st0{fill:none;stroke:#FFFFFF;stroke-width:1.5;stroke-linecap:round;stroke-linejoin:round;}
	.st1{fill:none;stroke:#FFFFFF;stroke-width:1.5;}
</style>
	<path class="st0" d="M12,16c2.2,0,4-1.8,4-4s-1.8-4-4-4s-4,1.8-4,4S9.8,16,12,16z"/>
	<path class="st1" d="M3,16V8c0-2.8,2.2-5,5-5h8c2.8,0,5,2.2,5,5v8c0,2.8-2.2,5-5,5H8C5.2,21,3,18.8,3,16z"/>
	<path class="st0" d="M17.5,6.5L17.5,6.5"/>
</svg>
